assets/ai/ai-open-materials-square.svg

<svg xmlns="http://www.w3.org/2000/svg" width="100%" height="100%" viewBox="-75.52 -43.52 599.04 599.04"><path d="M 48 32 C 21.5 32 0 53.5 0 80 L 0 432 C 0 458.5 21.5 480 48 480 L 400 480 C 426.5 480 448 458.5 448 432 L 448 80 C 448 53.5 426.5 32 400 32 L 48 32 z M 223.99414 96 C 233.32702 96 242.65437 98.043922 249.73438 102.13672 L 344.38867 156.77734 C 358.54041 164.9546 370.125 185.00571 370.125 201.34766 L 370.125 310.65039 C 370.125 326.99654 358.54041 347.05548 344.38867 355.22852 L 249.72852 409.88281 C 242.65688 413.9631 233.32702 416 223.99414 416 C 214.66957 416 205.33781 413.9631 198.25781 409.88281 L 103.61133 355.22852 C 89.455524 347.05548 77.875 326.99654 77.875 310.65039 L 77.875 201.34766 C 77.875 185.00571 89.455524 164.9546 103.61133 156.77734 L 198.25781 102.13672 C 205.33782 98.043922 214.66538 96 223.99414 96 z M 186.53711 190.02344 L 121.94531 216.3457 L 159.41992 231.09375 L 224 204.77734 L 186.53711 190.02344 z M 224 204.77734 L 288.58594 231.09375 L 326.04883 216.3457 L 261.48047 190.02344 L 224 204.77734 z M 288.58594 231.09375 L 224 257.39648 L 159.41992 231.09375 L 159.41992 295.67188 L 224 321.98242 L 288.58594 295.67188 L 288.58594 231.09375 z"/></svg>

<svg xmlns="http://www.w3.org/2000/svg" width="100%" height="100%" viewBox="-75.52 -43.52 599.04 599.04"><path d="M48 32C21.5 32 0 53.5 0 80v352c0 26.5 21.5 48 48 48h352c26.5 0 48-21.5 48-48V80c0-26.5-21.5-48-48-48H48zm175.994 64c9.333 0 18.66 2.044 25.74 6.137l94.655 54.64c14.151 8.178 25.736 28.229 25.736 44.57V310.65c0 16.347-11.585 36.405-25.736 44.579l-94.66 54.654c-7.072 4.08-16.402 6.117-25.735 6.117-9.324 0-18.656-2.037-25.736-6.117l-94.647-54.654c-14.155-8.174-25.736-28.232-25.736-44.579V201.348c0-16.342 11.58-36.393 25.736-44.57l94.647-54.641c7.08-4.093 16.407-6.137 25.736-6.137zm-37.457 94.023l-64.592 26.323 37.475 14.748L224 204.777l-37.463-14.754zM224 204.777l64.586 26.317 37.463-14.748-64.569-26.323L224 204.777zm64.586 26.317L224 257.396l-64.58-26.302v64.578l64.58 26.31 64.586-26.31v-64.578z"/></svg>
